X: 31551
T: Padraig O'Keefe's
R: slide
M: 12/8
K: Dmajor
|:F2A AGF G2B BAG|F2A B2c ded cBA|
F2A AGF G2AB2d|1 e2d cde d2A BAG:|2 e2d cde d3 d2e||
|:f3 fef g2e f2d|e2d cBA e2d cBA|
f3 fef g2e f2d|1 e2d cde d3 d2e:|2 e2d cde d2A BAG||

